X: 33
T: No_29_Undetermined_Dance_Song_(c).krn
N: Derived from No_29_Undetermined_Dance_Song_(c).krn
%%abc-version 2.0
%%abcx-abcm2ps-target-version 5.9.1 (29 Sep 2008)
%%abc-creator hum2abc beta
%%abcx-conversion-date 2019/03/15 08:36:49
%%humdrum-veritas 1100266170
%%humdrum-veritas-data 3013904082
%%linebreak <none>
%%barnumbers 0
L: 1/8
M: 2/4
K: G clef=bass
[K:clef=bass][M:2/4]D3A, | 
D4 | 
A,C CA,/F,/ | 
A,4 | 
E,G, G,E,/D,/ | 
E,4 | 
D,E, E,D,/B,,/ | 
D,4 | 
D,G, G,E,/D,/ | 
E,4 | 
D,E, E,D,/B,,/ | 
D,4 | 
D,G, G,E,/D,/ | 
D,3E, | 
D,4 |]  



